X:1
T:Piangi tu pur grida
T:Benedetto Ferrari
T:Source : Musiche Varie a voce sola---Libro primo---Venetia---B.Magni---1633. Editor : André Vierendeels (01/01/17).
T:Notes : Original clefs : C1, F4 Editorial accidentals above the staff Figures in BC are notated in original print
T:Piangi tu pur grida
T:©
T:©
T:©
C:Benedetto Ferrari
Z:©
%%score 1 2
L:1/8
Q:1/4=104
M:4/4
K:F
V:1 treble nm="Soprano" snm="S"
V:2 bass nm="MusicXML Part"
V:1
 z4 d4- | d4 ^F4 | D2 DD G4 | B/A/B/c/ d4 d2 | G2 z A ^F3 F | z2 ^FF G2 GG | A2 AA B2 cc | %7
w: Pian-|* gi,|pian- gi tu pur|gri- * * * * da|e so- spi- ra,|fer- no scioc- co d'a-|mor, fer- no scoc- cio d'a-|
w: Fol-|* le|fol- le che fai,|che _ _ _ lun- ge|da mie fro- di|del- la tua ser- vi-|tu non sco- gli- o gl'i|
w: Sce-|* mi,|sce- mi di te,|d'hu- * * * man giu-|di- tio'il van- to|se- guir Don- na, a-|mar Don- na in sta- bil|
 d3 B _e4- | e2 d2 c4 | B8 |[M:6/4] z2 d2 e2 f2 _e2 d2 | _e2 d2 c2 d2 c3 B | c2 B2 A2 B2 A2 G2 | %13
w: mor e ti|_ mar- ti-|ra,|ch'io non cu- 'i tuoi|guai de tuoi stri- di mi|ri- do, mi bef- fo di|
w: no- * *||di?|io son fe- mi- na|al fin, con la- men- te|va- gan- te, ch'io dir poi|
w: tan- * *||to;|ol- tre che mi sen-|t'io fra lo stuol, che t'al-|let- ta del piu no- to|
 A2 A2 B2 c2 TB3 A | A6 z2 F2 G2 | A2 G2 F2 G2 F2 E2 | F2 E3 D E2 D2 ^C2 | D2 E2 F2 F2 E4 | %18
w: te cre- di- lo pur à|me, io son|cie- c'al tuo pian- to son|sor- d'a'i la- men- ti, son|cru- d'a'i tor- men- *|
w: non lo, sem- pre'in aer mi|sto, la- scia|d'es- ser a- man- te, che|fon- di nel on- da lon-|tan dal- la re- spon-|
w: stran por- tar l'in- se- gna'in|man; io son|i- ra'e ven- det- ta, son|gel den- tro, e fo- re|son sel- va d'a- mo-|
 D6 z2 G2 A2 | B2 A2 G2 A2 G2 F2 | G2 F3 E F2 E2 D2 | E2 ^F2 G2 G4 F2 | G12 |] %23
w: ti, io son|cie- c'al tuo pian- to, son|sor- da'i la- men- ti, son|cru- d'a'i tor- men- *|ti|
w: da, la- scia|d'es- ser a- man- te, che|fon- di nel on- da lon-|tan dal- la re- spon-|da.|
w: re, io son|i- ra'e ven- det- ta, son|gel den- tro, e fo- re|son sel- va d'a- mo-|re.|
V:2
"^BC" G,,8 |"^4 #" D,8- |"^6 5" D,4 G,,4- | G,,8 |"^7 6" _E,4 D,4- | D,4 G,4 | D,4 G,,2 F,,2 | %7
 B,,4 _E,,4 |"^3 4 3" F,,8 | B,,8 |[M:6/4] z2 B,2 C2 D2 C2 B,2 | C2 B,2 A,2 B,2 A,3 G, | %12
 A,2 G,2 F,2 G,2 F,2 E,2 |"^4 3" F,2 E,2 D,2 C,6 | F,2 F,,4 z2 D,2 E,2 | F,2 E,2 D,2 E,2 D,2 C,2 | %16
 D,2 C,3 =B,, C,2 B,,2 A,,2 |"^(b)" B,,2 A,,2 G,,2 A,,6 | D,2 D,,4 z2 E,2 F,2 | %19
 G,2 F,2 E,2 F,2 E,2 D,2 | E,2 D,3 C, D,2 C,2 =B,,2 |"^5 6 7""^4 #" C,6 D,6 | G,,12 |] %23

